outputs/icons/enterprise/strategy_round.svg

<svg xmlns="http://www.w3.org/2000/svg" width="1200" height="1200" fill="none"><path fill="#000" fill-rule="evenodd" d="M287.5 568.75a62.5 62.5 0 0 1 44.19 18.31A62.5 62.5 0 0 1 350 631.25a62.5 62.5 0 0 1-18.31 44.19 62.5 62.5 0 0 1-44.19 18.31 62.5 62.5 0 0 1-44.19-18.31A62.5 62.5 0 0 1 225 631.25a62.5 62.5 0 0 1 18.31-44.19 62.5 62.5 0 0 1 44.19-18.31m0 31.25c-8.288 0-16.259 3.27-22.119 9.13-5.861 5.86-9.131 13.83-9.131 22.12s3.27 16.26 9.131 22.12c5.86 5.86 13.831 9.13 22.119 9.13s16.259-3.27 22.119-9.13c5.861-5.86 9.131-13.83 9.131-22.12s-3.27-16.26-9.131-22.12c-5.86-5.86-13.831-9.13-22.119-9.13"/><path fill="#000" d="M965.82 465.82a31.3 31.3 0 0 1 6.785 10.156A31.2 31.2 0 0 1 975 487.939c0 4.105-.82 8.172-2.395 11.963a31.3 31.3 0 0 1-6.785 10.158 31.2 31.2 0 0 1-10.105 6.735 31.4 31.4 0 0 1-11.965 2.395c-4.1 0-8.175-.825-11.965-2.395-3.785-1.565-7.255-3.84-10.155-6.735l-40.43-40.431v99.121a93.79 93.79 0 0 1-27.44 66.31c-17.58 17.575-41.45 27.44-66.31 27.44H412.451a31.4 31.4 0 0 1-12.305-2.54 31.3 31.3 0 0 1-10.302-7.175 31.3 31.3 0 0 1-6.641-10.645c-1.474-3.965-2.158-8.18-1.953-12.405.86-16.795 15.293-29.735 32.129-29.735H787.45c8.285 0 16.26-3.275 22.12-9.13 5.86-5.86 9.13-13.83 9.13-22.12v-99.121l-40.43 40.431a31.2 31.2 0 0 1-10.105 6.785 31.4 31.4 0 0 1-11.965 2.395c-4.1 0-8.17-.825-11.96-2.395a31.4 31.4 0 0 1-10.16-6.785c-2.895-2.9-5.215-6.325-6.785-10.109-1.57-3.789-2.345-7.862-2.345-11.963 0-4.099.78-8.174 2.345-11.963a31.4 31.4 0 0 1 6.785-10.156L850 350zM850 193.75c34.52 0 62.5 27.982 62.5 62.5-.015 34.507-27.99 62.5-62.5 62.5s-62.485-27.993-62.5-62.5c0-34.518 27.98-62.5 62.5-62.5"/><path fill="#000" fill-rule="evenodd" d="M1100 131.25h-31.25v625H1100v31.25H631.25v196.63L747.07 1100h-44.19l-71.63-71.68V1100h-62.5v-71.68L497.07 1100h-44.189L568.75 984.13V787.5H100v-31.25h31.25v-625H100V100h1000zm-937.5 625h875v-625h-875z"/></svg>

<svg width="1200" height="1200" viewBox="0 0 1200 1200" fill="none" xmlns="http://www.w3.org/2000/svg"><path fill-rule="evenodd" d="M1100 131.25V100H100V131.25H131.25V756.25H100V787.5H568.75V984.14L452.89 1100H497.089L568.75 1028.34V1100H631.25V1028.34L702.89 1100H747.09L631.25 984.14V787.5H1100V756.25H1068.75V131.25H1100ZM1037.5 756.25H162.5V131.25H1037.5V756.25ZM912.5 256.226C912.5 290.743 884.52 318.726 850 318.726C815.48 318.726 787.5 290.743 787.5 256.226C787.5 221.708 815.48 193.725 850 193.725C884.52 193.725 912.5 221.708 912.5 256.226ZM331.693 675.445C319.972 687.165 304.076 693.75 287.5 693.75C270.924 693.75 255.027 687.165 243.306 675.445C231.585 663.725 225 647.825 225 631.25C225 614.675 231.585 598.775 243.306 587.055C255.027 575.335 270.924 568.75 287.5 568.75C304.076 568.75 319.972 575.335 331.693 587.055C343.415 598.775 350 614.675 350 631.25C350 647.825 343.415 663.725 331.693 675.445ZM309.597 609.155C303.736 603.29 295.788 600 287.5 600C279.212 600 271.264 603.29 265.403 609.155C259.543 615.015 256.25 622.96 256.25 631.25C256.25 639.54 259.543 647.485 265.403 653.345C271.264 659.21 279.212 662.5 287.5 662.5C295.788 662.5 303.736 659.21 309.597 653.345C315.457 647.485 318.75 639.54 318.75 631.25C318.75 622.96 315.457 615.015 309.597 609.155ZM787.47 662.5H412.47C408.239 662.5 404.05 661.64 400.161 659.975C396.272 658.305 392.761 655.865 389.843 652.8C386.924 649.735 384.658 646.11 383.183 642.145C381.707 638.18 381.053 633.955 381.26 629.725C382.119 612.93 396.533 600 413.369 600H787.47C795.76 600 803.705 596.71 809.57 590.845C815.43 584.985 818.72 577.04 818.72 568.75V469.649L778.29 510.08C775.39 512.98 771.945 515.285 768.15 516.855C764.36 518.425 760.295 519.235 756.19 519.235C752.085 519.235 748.02 518.425 744.23 516.855C740.44 515.285 736.995 512.98 734.09 510.08C731.19 507.175 728.885 503.73 727.315 499.939C725.745 496.147 724.935 492.083 724.935 487.978C724.935 483.874 725.745 479.81 727.315 476.018C728.885 472.226 731.19 468.781 734.09 465.879L849.99 350L965.83 465.84C968.73 468.742 971.035 472.187 972.605 475.979C974.175 479.771 974.985 483.835 974.985 487.939C974.985 492.044 974.175 496.108 972.605 499.9C971.035 503.69 968.73 507.135 965.83 510.04C962.93 512.94 959.485 515.245 955.69 516.815C951.9 518.385 947.835 519.195 943.73 519.195C939.625 519.195 935.56 518.385 931.77 516.815C927.98 515.245 924.535 512.94 921.63 510.04L881.22 469.629V568.75C881.22 593.615 871.345 617.46 853.76 635.04C836.18 652.625 812.335 662.5 787.47 662.5Z" fill="#1D1E23"/></svg>
